icons/cljs.svg

<svg xmlns="http://www.w3.org/2000/svg" viewBox="0 0 256 255.557">
  <path fill="#96ca4b" d="M70.337 160.792c-8.048 0-14.131-2.345-18.313-7.034-4.182-4.689-6.274-11.406-6.274-20.15 0-8.935 2.155-15.778 6.527-20.594 4.372-4.816 10.646-7.224 18.947-7.224 5.576 0 10.645 1.014 15.081 3.105l-3.422 9.061c-4.752-1.837-8.681-2.788-11.786-2.788-9.188 0-13.751 6.083-13.751 18.25 0 5.956 1.141 10.392 3.422 13.433 2.281 2.979 5.64 4.499 10.076 4.499 5.006 0 9.758-1.267 14.257-3.738v9.822c-2.028 1.204-4.182 2.027-6.463 2.534-2.282.571-5.07.824-8.301.824M104.935 85.196h11.279v74.645h-11.279z"/>
  <path fill="#5f7fbf" d="M134.273 183.414c-3.358 0-6.21-.38-8.428-1.204v-8.935c2.155.57 4.373.887 6.654.887 4.816 0 7.224-2.724 7.224-8.174V106.74h11.279v60.008c0 5.45-1.458 9.632-4.309 12.42-2.915 2.852-7.034 4.246-12.42 4.246zm4.753-90.677c0-2.028.57-3.549 1.647-4.626 1.078-1.077 2.662-1.648 4.753-1.648 1.964 0 3.548.571 4.625 1.648 1.078 1.077 1.648 2.661 1.648 4.626 0 1.901-.57 3.421-1.648 4.562-1.077 1.077-2.661 1.647-4.625 1.647-2.028 0-3.612-.57-4.753-1.647-1.14-1.141-1.647-2.661-1.647-4.562zM210.059 144.76c0 5.196-1.901 9.125-5.639 11.913-3.802 2.788-9.188 4.119-16.222 4.119-7.097 0-12.737-1.077-17.046-3.232v-9.758c6.21 2.851 12.04 4.309 17.426 4.309 6.907 0 10.392-2.091 10.392-6.273 0-1.331-.38-2.472-1.14-3.359-.761-.887-2.028-1.838-3.802-2.788-1.775-.951-4.183-2.028-7.351-3.232-6.083-2.344-10.265-4.752-12.42-7.097-2.154-2.344-3.231-5.449-3.231-9.188 0-4.562 1.837-8.047 5.513-10.582 3.675-2.535 8.617-3.739 14.954-3.739 6.21 0 12.103 1.268 17.679 3.802l-3.675 8.491c-5.703-2.344-10.519-3.548-14.448-3.548-5.956 0-8.934 1.711-8.934 5.069 0 1.648.76 3.042 2.344 4.246 1.521 1.14 4.943 2.725 10.139 4.752 4.372 1.711 7.541 3.232 9.568 4.626 1.965 1.394 3.422 3.042 4.436 4.879.95 1.774 1.457 3.992 1.457 6.59"/>
  <path fill="#96ca4b" d="m118.03 16.69 1.732-.154V0l-2.052.165c-31.948 2.56-61.614 16.979-83.531 40.601C12.138 64.52 0 95.422 0 127.778c0 32.357 12.138 63.258 34.179 87.012 21.917 23.622 51.583 38.041 83.531 40.602l2.052.165v-16.599l-1.732-.155c-27.594-2.451-53.194-15.107-72.085-35.639-19.004-20.655-29.47-47.45-29.47-75.449 0-27.995 10.466-54.779 29.47-75.417C64.831 31.786 90.431 19.141 118.03 16.69"/>
  <path fill="#5f7fbf" d="M221.821 40.766C199.904 17.144 170.238 2.725 138.29.165L136.238 0v16.536l1.732.154c27.594 2.45 53.195 15.107 72.085 35.639 19.004 20.655 29.47 47.45 29.47 75.449 0 27.999-10.466 54.794-29.47 75.449-18.89 20.532-44.491 33.189-72.085 35.64l-1.732.154v16.536l2.052-.165c31.948-2.561 61.614-16.98 83.531-40.602C243.862 191.036 256 160.135 256 127.778c0-32.356-12.138-63.258-34.179-87.012"/>
</svg>

<?xml version="1.0" encoding="UTF-8" standalone="no"?>
<svg width="256px" height="256px" viewBox="0 0 256 256" version="1.1" xmlns="http://www.w3.org/2000/svg" xmlns:xlink="http://www.w3.org/1999/xlink" preserveAspectRatio="xMidYMid">
	<g>
		<path d="M70.337,160.792 C62.289,160.792 56.206,158.447 52.024,153.758 C47.842,149.069 45.75,142.352 45.75,133.608 C45.75,124.673 47.905,117.83 52.277,113.014 C56.649,108.198 62.923,105.79 71.224,105.79 C76.8,105.79 81.869,106.804 86.305,108.895 L82.883,117.956 C78.131,116.119 74.202,115.168 71.097,115.168 C61.909,115.168 57.346,121.251 57.346,133.418 C57.346,139.374 58.487,143.81 60.768,146.851 C63.049,149.83 66.408,151.35 70.844,151.35 C75.85,151.35 80.602,150.083 85.101,147.612 L85.101,157.434 C83.073,158.638 80.919,159.461 78.638,159.968 C76.356,160.539 73.568,160.792 70.337,160.792" fill="#96CA4B"></path>
		<path d="M104.935,85.196 L116.214,85.196 L116.214,159.841 L104.935,159.841 L104.935,85.196 Z" fill="#96CA4B"></path>
		<path d="M134.273,183.414 C130.915,183.414 128.063,183.034 125.845,182.21 L125.845,173.275 C128,173.845 130.218,174.162 132.499,174.162 C137.315,174.162 139.723,171.438 139.723,165.988 L139.723,106.74 L151.002,106.74 L151.002,166.748 C151.002,172.198 149.544,176.38 146.693,179.168 C143.778,182.02 139.659,183.414 134.273,183.414 L134.273,183.414 Z M139.026,92.737 C139.026,90.709 139.596,89.188 140.673,88.111 C141.751,87.034 143.335,86.463 145.426,86.463 C147.39,86.463 148.974,87.034 150.051,88.111 C151.129,89.188 151.699,90.772 151.699,92.737 C151.699,94.638 151.129,96.158 150.051,97.299 C148.974,98.376 147.39,98.946 145.426,98.946 C143.398,98.946 141.814,98.376 140.673,97.299 C139.533,96.158 139.026,94.638 139.026,92.737 L139.026,92.737 Z" fill="#5F7FBF"></path>
		<path d="M210.059,144.76 C210.059,149.956 208.158,153.885 204.42,156.673 C200.618,159.461 195.232,160.792 188.198,160.792 C181.101,160.792 175.461,159.715 171.152,157.56 L171.152,147.802 C177.362,150.653 183.192,152.111 188.578,152.111 C195.485,152.111 198.97,150.02 198.97,145.838 C198.97,144.507 198.59,143.366 197.83,142.479 C197.069,141.592 195.802,140.641 194.028,139.691 C192.253,138.74 189.845,137.663 186.677,136.459 C180.594,134.115 176.412,131.707 174.257,129.362 C172.103,127.018 171.026,123.913 171.026,120.174 C171.026,115.612 172.863,112.127 176.539,109.592 C180.214,107.057 185.156,105.853 191.493,105.853 C197.703,105.853 203.596,107.121 209.172,109.655 L205.497,118.146 C199.794,115.802 194.978,114.598 191.049,114.598 C185.093,114.598 182.115,116.309 182.115,119.667 C182.115,121.315 182.875,122.709 184.459,123.913 C185.98,125.053 189.402,126.638 194.598,128.665 C198.97,130.376 202.139,131.897 204.166,133.291 C206.131,134.685 207.588,136.333 208.602,138.17 C209.552,139.944 210.059,142.162 210.059,144.76" fill="#5F7FBF"></path>
		<path d="M118.03,16.69 L119.762,16.536 L119.762,0 L117.71,0.165 C85.762,2.725 56.096,17.144 34.179,40.766 C12.138,64.52 0,95.422 0,127.778 C0,160.135 12.138,191.036 34.179,214.79 C56.096,238.412 85.762,252.831 117.71,255.392 L119.762,255.557 L119.762,238.958 L118.03,238.803 C90.436,236.352 64.836,223.696 45.945,203.164 C26.941,182.509 16.475,155.714 16.475,127.715 C16.475,99.72 26.941,72.936 45.945,52.298 C64.831,31.786 90.431,19.141 118.03,16.69" fill="#96CA4B"></path>
		<path d="M221.821,40.766 C199.904,17.144 170.238,2.725 138.29,0.165 L136.238,0 L136.238,16.536 L137.97,16.69 C165.564,19.14 191.165,31.797 210.055,52.329 C229.059,72.984 239.525,99.779 239.525,127.778 C239.525,155.777 229.059,182.572 210.055,203.227 C191.165,223.759 165.564,236.416 137.97,238.867 L136.238,239.021 L136.238,255.557 L138.29,255.392 C170.238,252.831 199.904,238.412 221.821,214.79 C243.862,191.036 256,160.135 256,127.778 C256,95.422 243.862,64.52 221.821,40.766" fill="#5F7FBF"></path>
	</g>
</svg>
